Newaita-dark/apps/48/spotify-client.svg

<svg height="48pt" viewBox="0 0 48 48" width="48pt" xmlns="http://www.w3.org/2000/svg" xmlns:xlink="http://www.w3.org/1999/xlink"><linearGradient id="a"><stop offset="0" stop-opacity=".313725"/><stop offset=".222222" stop-opacity=".27451"/><stop offset="1" stop-opacity="0"/></linearGradient><radialGradient id="b" cx="450.90894" cy="189.57936" gradientTransform="matrix(.00000026 -.117199 -.210958 -.00000015 66.784728 95.392998)" gradientUnits="userSpaceOnUse" r="21.166656" xlink:href="#a"/><radialGradient id="c" cx="450.90894" cy="189.57936" gradientTransform="matrix(-.00000026 .117199 .210958 .00000015 -19.155181 -11.291222)" gradientUnits="userSpaceOnUse" r="21.166656" xlink:href="#a"/><radialGradient id="d" cx="450.90894" cy="189.57936" gradientTransform="matrix(-.00000026 -.117199 .210958 -.00000015 -19.155181 95.392998)" gradientUnits="userSpaceOnUse" r="21.166656" xlink:href="#a"/><radialGradient id="e" cx="450.90894" cy="189.57936" gradientTransform="matrix(.00000026 .117199 -.210958 .00000015 66.784725 -11.291223)" gradientUnits="userSpaceOnUse" r="21.166656" xlink:href="#a"/><linearGradient id="f" gradientTransform="matrix(.0200401 0 0 .093759 18.698079 20.158175)" gradientUnits="userSpaceOnUse" x1="255.32306" x2="255.32304" y1="233.5" y2="254.66666"><stop offset="0" stop-opacity=".27451"/><stop offset="1" stop-opacity="0"/></linearGradient><linearGradient id="g" gradientUnits="userSpaceOnUse" x1="254" x2="254" y1="-168.66667" y2="233.5"><stop offset="0" stop-color="#81c784"/><stop offset="1" stop-color="#66bb6a"/></linearGradient><linearGradient id="h" gradientTransform="matrix(.0244302 .0043077 -.0043077 .0244302 4.323321 -3.947392)" gradientUnits="userSpaceOnUse" x1="871.21808" x2="1102.7169" y1="185.77885" y2="1729.0249"><stop offset="0" stop-color="#e0e0e0"/><stop offset="1" stop-color="#eee"/></linearGradient><path d="m27.289062 42.050781h3.96875v-1.984375h-3.96875zm0 0" fill="url(#b)"/><path d="m20.339844 42.050781h-3.96875v1.984375h3.96875zm0 0" fill="url(#c)"/><path d="m20.339844 42.050781h-3.96875v-1.984375h3.96875zm0 0" fill="url(#d)"/><path d="m27.289062 42.050781h3.96875v1.984375h-3.96875zm0 0" fill="url(#e)"/><path d="m20.339844 41.554688h6.949218v2.480468h-6.949218zm0 0" fill="url(#f)"/><path d="m254.017409-168.671091c111.031064 0 201.064133 90.033069 201.064133 201.105795 0 111.031064-90.033069 201.064133-201.064133 201.064133-111.072726 0-201.105795-90.033069-201.105795-201.064133 0-111.072726 90.033069-201.105795 201.105795-201.105795zm0 0" fill="url(#g)" stroke="#333" stroke-linecap="round" stroke-width="3" transform="matrix(.093759 0 0 .093759 0 20.158175)"/><path d="m23.816406 42.050781c-10.445312 0-18.855468-8.410156-18.855468-18.851562 0-.0625 0-.125 0-.1875.101562 10.359375 8.472656 18.667969 18.855468 18.667969 10.382813 0 18.753906-8.308594 18.851563-18.667969v.1875c0 10.441406-8.410157 18.851562-18.851563 18.851562zm0 0" fill-opacity=".196078"/><path d="m23.816406 4.34375c-10.445312 0-18.855468 8.410156-18.855468 18.855469v.183593c.101562-10.359374 8.472656-18.667968 18.855468-18.667968 10.382813 0 18.753906 8.308594 18.851563 18.667968 0-.0625 0-.125 0-.183593 0-10.445313-8.410157-18.855469-18.851563-18.855469zm0 0" fill="#fff" fill-opacity=".392157"/><path d="m23.816406 4.203125c-10.523437 0-18.996094 8.472656-18.996094 18.996094 0 10.519531 8.472657 18.992187 18.996094 18.992187 10.519532 0 18.992188-8.472656 18.992188-18.992187 0-10.523438-8.472656-18.996094-18.992188-18.996094zm0 .28125c10.367188 0 18.710938 8.34375 18.710938 18.714844 0 10.367187-8.34375 18.710937-18.710938 18.710937-10.371094 0-18.714844-8.34375-18.714844-18.710937 0-10.371094 8.34375-18.714844 18.714844-18.714844zm0 0" fill="#212121"/><path d="m25.46875 13.273438c-2.375-.417969-4.730469-.484376-7.011719-.242188-7.273437 1.25-6.175781 6.46875-.914062 5.203125 2.261719-.460937 4.648437-.515625 7.066406-.085937 2.417969.425781 4.644531 1.289062 6.613281 2.496093 4.511719 2.992188 7.324219-1.539062.917969-5.199219-2.058594-1.011718-4.296875-1.75-6.671875-2.171874zm-1.375 7.804687c-2.378906-.417969-4.730469-.488281-7.011719-.242187-5.148437.617187-4.570312 4.496093-.722656 4.105468 2.269531-.375 4.644531-.378906 7.042969.046875 2.402344.421875 4.632812 1.238281 6.636718 2.363281 3.480469 1.6875 5.347657-1.761718.722657-4.101562-2.058594-1.011719-4.292969-1.753906-6.667969-2.171875zm-1.207031 6.839844c-2.375-.417969-4.730469-.484375-7.011719-.242188-3.0625.230469-2.359375 3.378907-.539062 3.070313 2.273437-.335938 4.640624-.316406 7.035156.105468 2.390625.421876 4.625 1.214844 6.644531 2.308594 1.601563.910156 3.339844-1.808594.542969-3.070312-2.058594-1.011719-4.296875-1.75-6.671875-2.171875zm0 0" fill="url(#h)"/><path d="m21.050781 12.890625c-.871093 0-1.738281.050781-2.59375.140625-3.957031.679688-5.4375 2.539062-5.113281 3.882812.269531-1.214843 1.847656-2.578124 5.113281-3.136718 2.28125-.246094 4.636719-.175782 7.011719.242187s4.613281 1.160157 6.671875 2.167969c2.414063 1.382812 3.519531 2.882812 3.714844 4.0625.238281-1.234375-.753907-3.113281-3.714844-4.804688-2.058594-1.011718-4.296875-1.75-6.671875-2.171874-1.484375-.261719-2.960938-.386719-4.417969-.382813zm-1.375 7.804687c-.875 0-1.738281.050782-2.59375.140626-2.917969.351562-3.996093 1.75-3.683593 2.824218.253906-.898437 1.410156-1.808594 3.683593-2.078125 2.28125-.246093 4.632813-.179687 7.011719.242188 2.375.417969 4.609375 1.160156 6.667969 2.167969 1.695312.859374 2.519531 1.863281 2.710937 2.714843.238282-.945312-.480468-2.332031-2.710937-3.457031-2.058594-1.011719-4.292969-1.753906-6.667969-2.171875-1.488281-.261719-2.964844-.386719-4.417969-.382813zm-1.207031 6.839844c-.871094 0-1.738281.050782-2.59375.140625-1.753906.132813-2.273438 1.222657-2.050781 2.070313.167969-.640625.789062-1.230469 2.050781-1.324219 2.28125-.246094 4.636719-.175781 7.011719.242187 2.375.417969 4.613281 1.160157 6.671875 2.167969.867187.390625 1.296875.921875 1.433594 1.441407.183593-.703126-.140626-1.601563-1.433594-2.183594-2.058594-1.011719-4.296875-1.75-6.671875-2.171875-1.484375-.261719-2.960938-.386719-4.417969-.382813zm0 0" fill="#fff"/><path d="m271.640726-73.430186c-25.330914-4.457908-50.453515-5.166173-74.784525-2.583087-77.575925 13.332061-65.86871 68.993412-9.749069 55.494701 24.122697-4.916197 49.578599-5.499475 75.367803-.916579 25.789204 4.541233 49.536936 13.748687 70.534931 26.622457 48.120405 31.91362 78.11754-16.415099 9.790732-55.453037-21.956237-10.790637-45.828957-18.664885-71.159872-23.164455zm-14.665266 83.242051c-25.372577-4.457908-50.453515-5.207836-74.784525-2.583087-54.911423 6.582705-48.745345 47.953754-7.707597 43.787485 24.206021-3.999618 49.536936-4.04128 75.117826.499953 25.622553 4.49957 49.411948 13.207072 70.784907 25.205926 37.121455 17.998281 57.03622-18.789872 7.707598-43.745823-21.956237-10.790636-45.787295-18.706547-71.118209-23.164454zm-12.873771 72.951367c-25.330914-4.457908-50.453515-5.166174-74.784525-2.583087-32.663547 2.458099-25.164263 36.038225-5.749451 32.746873 24.247685-3.582991 49.495274-3.374678 75.034502 1.124892 25.497565 4.499571 49.328622 12.957096 70.868232 24.622649 17.081702 9.707406 35.621598-19.289824 5.791114-32.746873-21.956237-10.790636-45.828957-18.664884-71.159872-23.164454zm0 0" fill="none" stroke="#212121" stroke-linecap="round" stroke-width="3" transform="matrix(.093759 0 0 .093759 0 20.158175)"/><path d="m13.433594 17c-.636719 1.609375 1.019531 3.101562 4.109375 2.359375 2.261719-.460937 4.648437-.511719 7.066406-.085937 2.417969.425781 4.644531 1.292968 6.613281 2.496093 2.957032 1.960938 5.183594.691407 4.5625-1.445312-.445312 1.238281-2.289062 1.644531-4.5625.136719-1.96875-1.207032-4.195312-2.074219-6.613281-2.5-2.417969-.425782-4.804687-.375-7.066406.085937-2.203125.53125-3.671875-.074219-4.109375-1.046875zm.082031 6.75c-.621094 1.222656.511719 2.554688 2.84375 2.316406 2.269531-.375 4.644531-.375 7.042969.046875 2.402344.425781 4.632812 1.238281 6.636718 2.367188 2.355469 1.140625 3.972657-.070313 3.339844-1.699219-.414062.832031-1.695312 1.183594-3.339844.386719-2.003906-1.128907-4.234374-1.941407-6.636718-2.367188-2.398438-.421875-4.773438-.417969-7.042969-.046875-1.476563.152344-2.46875-.324218-2.84375-1.003906zm.414063 6.097656c-.484376.96875.226562 2.226563 1.40625 2.027344 2.273437-.335938 4.640624-.320312 7.035156.101562 2.390625.421876 4.625 1.214844 6.644531 2.308594 1.199219.679688 2.472656-.664062 1.871094-1.914062-.324219.652344-1.113281 1.035156-1.871094.605468-2.019531-1.097656-4.253906-1.890624-6.644531-2.3125-2.394532-.421874-4.761719-.4375-7.035156-.101562-.65625.109375-1.164063-.226562-1.40625-.714844zm0 0" fill-opacity=".235294"/></svg>

<?xml version="1.0" encoding="UTF-8"?>
<svg xmlns="http://www.w3.org/2000/svg" xmlns:xlink="http://www.w3.org/1999/xlink" width="48pt" height="48pt" viewBox="0 0 48 48" version="1.1">
<defs>
<radialGradient id="radial0" gradientUnits="userSpaceOnUse" cx="450.90894" cy="189.57936" fx="450.90894" fy="189.57936" r="21.166656" gradientTransform="matrix(0.000000261256,-0.117199,-0.210958,-0.000000152308,66.784728,95.392998)">
<stop offset="0" style="stop-color:rgb(0%,0%,0%);stop-opacity:0.313725;"/>
<stop offset="0.222222" style="stop-color:rgb(0%,0%,0%);stop-opacity:0.27451;"/>
<stop offset="1" style="stop-color:rgb(0%,0%,0%);stop-opacity:0;"/>
</radialGradient>
<radialGradient id="radial1" gradientUnits="userSpaceOnUse" cx="450.90894" cy="189.57936" fx="450.90894" fy="189.57936" r="21.166656" gradientTransform="matrix(-0.000000261256,0.117199,0.210958,0.000000152308,-19.155181,-11.291222)">
<stop offset="0" style="stop-color:rgb(0%,0%,0%);stop-opacity:0.313725;"/>
<stop offset="0.222222" style="stop-color:rgb(0%,0%,0%);stop-opacity:0.27451;"/>
<stop offset="1" style="stop-color:rgb(0%,0%,0%);stop-opacity:0;"/>
</radialGradient>
<radialGradient id="radial2" gradientUnits="userSpaceOnUse" cx="450.90894" cy="189.57936" fx="450.90894" fy="189.57936" r="21.166656" gradientTransform="matrix(-0.000000261256,-0.117199,0.210958,-0.000000152308,-19.155181,95.392998)">
<stop offset="0" style="stop-color:rgb(0%,0%,0%);stop-opacity:0.313725;"/>
<stop offset="0.222222" style="stop-color:rgb(0%,0%,0%);stop-opacity:0.27451;"/>
<stop offset="1" style="stop-color:rgb(0%,0%,0%);stop-opacity:0;"/>
</radialGradient>
<radialGradient id="radial3" gradientUnits="userSpaceOnUse" cx="450.90894" cy="189.57936" fx="450.90894" fy="189.57936" r="21.166656" gradientTransform="matrix(0.000000261256,0.117199,-0.210958,0.000000152308,66.784725,-11.291223)">
<stop offset="0" style="stop-color:rgb(0%,0%,0%);stop-opacity:0.313725;"/>
<stop offset="0.222222" style="stop-color:rgb(0%,0%,0%);stop-opacity:0.27451;"/>
<stop offset="1" style="stop-color:rgb(0%,0%,0%);stop-opacity:0;"/>
</radialGradient>
<linearGradient id="linear0" gradientUnits="userSpaceOnUse" x1="255.32306" y1="233.5" x2="255.32304" y2="254.66666" gradientTransform="matrix(0.0200401,0,0,0.093759,18.698079,20.158175)">
<stop offset="0" style="stop-color:rgb(0%,0%,0%);stop-opacity:0.27451;"/>
<stop offset="1" style="stop-color:rgb(0%,0%,0%);stop-opacity:0;"/>
</linearGradient>
<linearGradient id="linear1" gradientUnits="userSpaceOnUse" x1="254" y1="-168.66667" x2="254" y2="233.5" gradientTransform="matrix(1,0,0,1,0,0)">
<stop offset="0" style="stop-color:rgb(50.588235%,78.039216%,51.764706%);stop-opacity:1;"/>
<stop offset="1" style="stop-color:rgb(40%,73.333333%,41.568627%);stop-opacity:1;"/>
</linearGradient>
<linearGradient id="linear2" gradientUnits="userSpaceOnUse" x1="871.21808" y1="185.77885" x2="1102.7169" y2="1729.0249" gradientTransform="matrix(0.0244302,0.0043077,-0.0043077,0.0244302,4.323321,-3.947392)">
<stop offset="0" style="stop-color:rgb(87.843137%,87.843137%,87.843137%);stop-opacity:1;"/>
<stop offset="1" style="stop-color:rgb(93.333333%,93.333333%,93.333333%);stop-opacity:1;"/>
</linearGradient>
</defs>
<g id="surface1">
<path style=" stroke:none;fill-rule:nonzero;fill:url(#radial0);" d="M 27.289062 42.050781 L 31.257812 42.050781 L 31.257812 40.066406 L 27.289062 40.066406 Z M 27.289062 42.050781 "/>
<path style=" stroke:none;fill-rule:nonzero;fill:url(#radial1);" d="M 20.339844 42.050781 L 16.371094 42.050781 L 16.371094 44.035156 L 20.339844 44.035156 Z M 20.339844 42.050781 "/>
<path style=" stroke:none;fill-rule:nonzero;fill:url(#radial2);" d="M 20.339844 42.050781 L 16.371094 42.050781 L 16.371094 40.066406 L 20.339844 40.066406 Z M 20.339844 42.050781 "/>
<path style=" stroke:none;fill-rule:nonzero;fill:url(#radial3);" d="M 27.289062 42.050781 L 31.257812 42.050781 L 31.257812 44.035156 L 27.289062 44.035156 Z M 27.289062 42.050781 "/>
<path style=" stroke:none;fill-rule:nonzero;fill:url(#linear0);" d="M 20.339844 41.554688 L 27.289062 41.554688 L 27.289062 44.035156 L 20.339844 44.035156 Z M 20.339844 41.554688 "/>
<path style="fill-rule:nonzero;fill:url(#linear1);stroke-width:3;stroke-linecap:round;stroke-linejoin:miter;stroke:rgb(20%,20%,20%);stroke-opacity:1;stroke-miterlimit:4;" d="M 254.017409 -168.671091 C 365.048473 -168.671091 455.081542 -78.638022 455.081542 32.434704 C 455.081542 143.465768 365.048473 233.498837 254.017409 233.498837 C 142.944683 233.498837 52.911614 143.465768 52.911614 32.434704 C 52.911614 -78.638022 142.944683 -168.671091 254.017409 -168.671091 Z M 254.017409 -168.671091 " transform="matrix(0.093759,0,0,0.093759,0,20.158175)"/>
<path style=" stroke:none;fill-rule:nonzero;fill:rgb(0%,0%,0%);fill-opacity:0.196078;" d="M 23.816406 42.050781 C 13.371094 42.050781 4.960938 33.640625 4.960938 23.199219 C 4.960938 23.136719 4.960938 23.074219 4.960938 23.011719 C 5.0625 33.371094 13.433594 41.679688 23.816406 41.679688 C 34.199219 41.679688 42.570312 33.371094 42.667969 23.011719 C 42.667969 23.074219 42.667969 23.136719 42.667969 23.199219 C 42.667969 33.640625 34.257812 42.050781 23.816406 42.050781 Z M 23.816406 42.050781 "/>
<path style=" stroke:none;fill-rule:nonzero;fill:rgb(100%,100%,100%);fill-opacity:0.392157;" d="M 23.816406 4.34375 C 13.371094 4.34375 4.960938 12.753906 4.960938 23.199219 C 4.960938 23.257812 4.960938 23.320312 4.960938 23.382812 C 5.0625 13.023438 13.433594 4.714844 23.816406 4.714844 C 34.199219 4.714844 42.570312 13.023438 42.667969 23.382812 C 42.667969 23.320312 42.667969 23.257812 42.667969 23.199219 C 42.667969 12.753906 34.257812 4.34375 23.816406 4.34375 Z M 23.816406 4.34375 "/>
<path style=" stroke:none;fill-rule:nonzero;fill:rgb(12.941176%,12.941176%,12.941176%);fill-opacity:1;" d="M 23.816406 4.203125 C 13.292969 4.203125 4.820312 12.675781 4.820312 23.199219 C 4.820312 33.71875 13.292969 42.191406 23.816406 42.191406 C 34.335938 42.191406 42.808594 33.71875 42.808594 23.199219 C 42.808594 12.675781 34.335938 4.203125 23.816406 4.203125 Z M 23.816406 4.484375 C 34.183594 4.484375 42.527344 12.828125 42.527344 23.199219 C 42.527344 33.566406 34.183594 41.910156 23.816406 41.910156 C 13.445312 41.910156 5.101562 33.566406 5.101562 23.199219 C 5.101562 12.828125 13.445312 4.484375 23.816406 4.484375 Z M 23.816406 4.484375 "/>
<path style=" stroke:none;fill-rule:nonzero;fill:url(#linear2);" d="M 25.46875 13.273438 C 23.09375 12.855469 20.738281 12.789062 18.457031 13.03125 C 11.183594 14.28125 12.28125 19.5 17.542969 18.234375 C 19.804688 17.773438 22.191406 17.71875 24.609375 18.148438 C 27.027344 18.574219 29.253906 19.4375 31.222656 20.644531 C 35.734375 23.636719 38.546875 19.105469 32.140625 15.445312 C 30.082031 14.433594 27.84375 13.695312 25.46875 13.273438 Z M 24.09375 21.078125 C 21.714844 20.660156 19.363281 20.589844 17.082031 20.835938 C 11.933594 21.453125 12.511719 25.332031 16.359375 24.941406 C 18.628906 24.566406 21.003906 24.5625 23.402344 24.988281 C 25.804688 25.410156 28.035156 26.226562 30.039062 27.351562 C 33.519531 29.039062 35.386719 25.589844 30.761719 23.25 C 28.703125 22.238281 26.46875 21.496094 24.09375 21.078125 Z M 22.886719 27.917969 C 20.511719 27.5 18.15625 27.433594 15.875 27.675781 C 12.8125 27.90625 13.515625 31.054688 15.335938 30.746094 C 17.609375 30.410156 19.976562 30.429688 22.371094 30.851562 C 24.761719 31.273438 26.996094 32.066406 29.015625 33.160156 C 30.617188 34.070312 32.355469 31.351562 29.558594 30.089844 C 27.5 29.078125 25.261719 28.339844 22.886719 27.917969 Z M 22.886719 27.917969 "/>
<path style=" stroke:none;fill-rule:nonzero;fill:rgb(100%,100%,100%);fill-opacity:1;" d="M 21.050781 12.890625 C 20.179688 12.890625 19.3125 12.941406 18.457031 13.03125 C 14.5 13.710938 13.019531 15.570312 13.34375 16.914062 C 13.613281 15.699219 15.191406 14.335938 18.457031 13.777344 C 20.738281 13.53125 23.09375 13.601562 25.46875 14.019531 C 27.84375 14.4375 30.082031 15.179688 32.140625 16.1875 C 34.554688 17.570312 35.660156 19.070312 35.855469 20.25 C 36.09375 19.015625 35.101562 17.136719 32.140625 15.445312 C 30.082031 14.433594 27.84375 13.695312 25.46875 13.273438 C 23.984375 13.011719 22.507812 12.886719 21.050781 12.890625 Z M 19.675781 20.695312 C 18.800781 20.695312 17.9375 20.746094 17.082031 20.835938 C 14.164062 21.1875 13.085938 22.585938 13.398438 23.660156 C 13.652344 22.761719 14.808594 21.851562 17.082031 21.582031 C 19.363281 21.335938 21.714844 21.402344 24.09375 21.824219 C 26.46875 22.242188 28.703125 22.984375 30.761719 23.992188 C 32.457031 24.851562 33.28125 25.855469 33.472656 26.707031 C 33.710938 25.761719 32.992188 24.375 30.761719 23.25 C 28.703125 22.238281 26.46875 21.496094 24.09375 21.078125 C 22.605469 20.816406 21.128906 20.691406 19.675781 20.695312 Z M 18.46875 27.535156 C 17.597656 27.535156 16.730469 27.585938 15.875 27.675781 C 14.121094 27.808594 13.601562 28.898438 13.824219 29.746094 C 13.992188 29.105469 14.613281 28.515625 15.875 28.421875 C 18.15625 28.175781 20.511719 28.246094 22.886719 28.664062 C 25.261719 29.082031 27.5 29.824219 29.558594 30.832031 C 30.425781 31.222656 30.855469 31.753906 30.992188 32.273438 C 31.175781 31.570312 30.851562 30.671875 29.558594 30.089844 C 27.5 29.078125 25.261719 28.339844 22.886719 27.917969 C 21.402344 27.65625 19.925781 27.53125 18.46875 27.535156 Z M 18.46875 27.535156 "/>
<path style="fill:none;stroke-width:3;stroke-linecap:round;stroke-linejoin:miter;stroke:rgb(12.941176%,12.941176%,12.941176%);stroke-opacity:1;stroke-miterlimit:4;" d="M 271.640726 -73.430186 C 246.309812 -77.888094 221.187211 -78.596359 196.856201 -76.013273 C 119.280276 -62.681212 130.987491 -7.019861 187.107132 -20.518572 C 211.229829 -25.434769 236.685731 -26.018047 262.474935 -21.435151 C 288.264139 -16.893918 312.011871 -7.686464 333.009866 5.187306 C 381.130271 37.100926 411.127406 -11.227793 342.800598 -50.265731 C 320.844361 -61.056368 296.971641 -68.930616 271.640726 -73.430186 Z M 256.97546 9.811865 C 231.602883 5.353957 206.521945 4.604029 182.190935 7.228778 C 127.279512 13.811483 133.44559 55.182532 174.483338 51.016263 C 198.689359 47.016645 224.020274 46.974983 249.601164 51.516216 C 275.223717 56.015786 299.013112 64.723288 320.386071 76.722142 C 357.507526 94.720423 377.422291 57.93227 328.093669 32.976319 C 306.137432 22.185683 282.306374 14.269772 256.97546 9.811865 Z M 244.101689 82.763232 C 218.770775 78.305324 193.648174 77.597058 169.317164 80.180145 C 136.653617 82.638244 144.152901 116.21837 163.567713 112.927018 C 187.815398 109.344027 213.062987 109.55234 238.602215 114.05191 C 264.09978 118.551481 287.930837 127.009006 309.470447 138.674559 C 326.552149 148.381965 345.092045 119.384735 315.261561 105.927686 C 293.305324 95.13705 269.432604 87.262802 244.101689 82.763232 Z M 244.101689 82.763232 " transform="matrix(0.093759,0,0,0.093759,0,20.158175)"/>
<path style=" stroke:none;fill-rule:nonzero;fill:rgb(0%,0%,0%);fill-opacity:0.235294;" d="M 13.433594 17 C 12.796875 18.609375 14.453125 20.101562 17.542969 19.359375 C 19.804688 18.898438 22.191406 18.847656 24.609375 19.273438 C 27.027344 19.699219 29.253906 20.566406 31.222656 21.769531 C 34.179688 23.730469 36.40625 22.460938 35.785156 20.324219 C 35.339844 21.5625 33.496094 21.96875 31.222656 20.460938 C 29.253906 19.253906 27.027344 18.386719 24.609375 17.960938 C 22.191406 17.535156 19.804688 17.585938 17.542969 18.046875 C 15.339844 18.578125 13.871094 17.972656 13.433594 17 Z M 13.515625 23.75 C 12.894531 24.972656 14.027344 26.304688 16.359375 26.066406 C 18.628906 25.691406 21.003906 25.691406 23.402344 26.113281 C 25.804688 26.539062 28.035156 27.351562 30.039062 28.480469 C 32.394531 29.621094 34.011719 28.410156 33.378906 26.78125 C 32.964844 27.613281 31.683594 27.964844 30.039062 27.167969 C 28.035156 26.039062 25.804688 25.226562 23.402344 24.800781 C 21.003906 24.378906 18.628906 24.382812 16.359375 24.753906 C 14.882812 24.90625 13.890625 24.429688 13.515625 23.75 Z M 13.929688 29.847656 C 13.445312 30.816406 14.15625 32.074219 15.335938 31.875 C 17.609375 31.539062 19.976562 31.554688 22.371094 31.976562 C 24.761719 32.398438 26.996094 33.191406 29.015625 34.285156 C 30.214844 34.964844 31.488281 33.621094 30.886719 32.371094 C 30.5625 33.023438 29.773438 33.40625 29.015625 32.976562 C 26.996094 31.878906 24.761719 31.085938 22.371094 30.664062 C 19.976562 30.242188 17.609375 30.226562 15.335938 30.5625 C 14.679688 30.671875 14.171875 30.335938 13.929688 29.847656 Z M 13.929688 29.847656 "/>
</g>
</svg>
